Numix-GalliumOS/48/actions/gtk-undelete.svg

<?xml version="1.0" encoding="UTF-8" standalone="no"?>
<svg
   xmlns:dc="http://purl.org/dc/elements/1.1/"
   xmlns:cc="http://creativecommons.org/ns#"
   xmlns:rdf="http://www.w3.org/1999/02/22-rdf-syntax-ns#"
   xmlns:svg="http://www.w3.org/2000/svg"
   xmlns="http://www.w3.org/2000/svg"
   xmlns:sodipodi="http://sodipodi.sourceforge.net/DTD/sodipodi-0.dtd"
   xmlns:inkscape="http://www.inkscape.org/namespaces/inkscape"
   width="48"
   height="48"
   viewBox="0 0 48 48"
   id="svg2"
   version="1.1"
   inkscape:version="0.91 r"
   sodipodi:docname="gtk-undelete.svg">
  <metadata
     id="metadata20">
    <rdf:RDF>
      <cc:Work
         rdf:about="">
        <dc:format>image/svg+xml</dc:format>
        <dc:type
           rdf:resource="http://purl.org/dc/dcmitype/StillImage" />
        <dc:title />
      </cc:Work>
    </rdf:RDF>
  </metadata>
  <defs
     id="defs18" />
  <sodipodi:namedview
     pagecolor="#ffffff"
     bordercolor="#666666"
     borderopacity="1"
     objecttolerance="10"
     gridtolerance="10"
     guidetolerance="10"
     inkscape:pageopacity="0"
     inkscape:pageshadow="2"
     inkscape:window-width="1366"
     inkscape:window-height="747"
     id="namedview16"
     showgrid="true"
     inkscape:zoom="6.9532167"
     inkscape:cx="-11.636424"
     inkscape:cy="27.919577"
     inkscape:window-x="0"
     inkscape:window-y="21"
     inkscape:window-maximized="1"
     inkscape:current-layer="svg2">
    <inkscape:grid
       type="xygrid"
       id="grid4139" />
  </sodipodi:namedview>
  <path
     style="fill:#dc322f"
     d="M 38 16 L 38 40 C 38 44 38 44 34 44 L 14 44 C 10 44 10 44 10 40 L 10 16 C 18 16 32 16 38 16 Z "
     id="path4" />
  <g
     style="fill:#fff;fill-opacity:.667"
     id="g6">
    <path
       d="M 14 20 L 14 40 L 18 40 L 18 20 Z "
       id="path8" />
    <path
       d="M 22 20 L 22 40 L 26 40 L 26 20 Z "
       id="path10" />
    <path
       d="M 30 20 L 30 40 L 34 40 L 34 20 Z "
       id="path12" />
  </g>
  <path
     style="fill:#dc322f"
     d="M 10 12 L 38 12 L 38 8 L 30 8 L 30 4 L 18 4 L 18 8 L 10 8 Z "
     id="path14" />
  <path
     id="path4150"
     d="m 36.534669,43.931373 c 1.216216,-0.509931 2.280037,-1.096059 3.182675,-1.755453 8.868115,-6.963201 2.819275,-17.346458 -7.713444,-17.346458 l 0,-6.00195 L 20,27.830438 l 12.0039,10.503413 0,-6.00195 c 9.032232,1.51514 9.061538,2.880818 4.545422,10.488759 0,0 -1.500487,1.515141 0,1.110713 z"
     style="fill:#859900;fill-opacity:1"
     inkscape:connector-curvature="0" />
</svg>

<svg xmlns="http://www.w3.org/2000/svg" viewBox="0 0 48 48">
 <path d="m 38 16 l 0 24 c 0 4 0 4 -4 4 l -20 0 c -4 0 -4 0 -4 -4 l 0 -24 c 8 0 22 0 28 0 Z" style="fill:#dc322f"/>
 <g style="fill:#fff;fill-opacity:0.667">
  <path d="m 14 20 l 0 20 l 4 0 l 0 -20 Z"/>
  <path d="m 22 20 l 0 20 l 4 0 l 0 -20 Z"/>
  <path d="m 30 20 l 0 20 l 4 0 l 0 -20 Z"/>
 </g>
 <path d="m 10 12 l 28 0 l 0 -4 l -8 0 l 0 -4 l -12 0 l 0 4 l -8 0 Z" style="fill:#dc322f"/>
 <path d="m 36.535 43.931 c 1.216 -0.51 2.28 -1.096 3.183 -1.755 8.868 -6.963 2.819 -17.346 -7.713 -17.346 l 0 -6 l -12 9 l 12 10.503 0 -6 c 9.03 1.515 9.06 2.881 4.545 10.489 0 0 -1.5 1.515 0 1.111 z" style="fill:#859900;fill-opacity:1"/>
</svg>
